Yaru++/apps/scalable/com.github.alecaddd.taxi.svg

<svg enable-background="new" height="256" viewBox="0 0 256 256" width="256" xmlns="http://www.w3.org/2000/svg" xmlns:xlink="http://www.w3.org/1999/xlink">
  <linearGradient id="linearGradient4358" gradientTransform="matrix(0 -1 1 0 -10.0054 585.9946)" gradientUnits="userSpaceOnUse" x1="88" x2="488" y1="88" y2="488">
    <stop offset="0" stop-opacity=".588235"/>
    <stop offset=".88" stop-opacity="0"/>
    <stop offset="1"/>
  </linearGradient>
  <filter id="filter4380" color-interpolation-filters="sRGB" height="1.088" width="1.106" x="-.05" y="-.04">
    <feGaussianBlur stdDeviation="8.48"/>
  </filter>
  <filter id="filter4346" color-interpolation-filters="sRGB" height="1.022" width="1.026" x="-.01" y="-.01">
    <feGaussianBlur stdDeviation="2.12"/>
  </filter>
  <path d="m189.84323 74c-70.59344 0-78.18921 7.250835-77.84323 77.98706v146.01294 146.01294c-.34598 70.73623 7.24979 77.98706 77.84323 77.98706h196.31354c70.59344 0 76.00668-7.27384 77.84323-77.98706v-146.01294-146.01294c0-70.737067-7.24979-77.98706-77.84323-77.98706z" filter="url(#filter4346)" opacity=".1" transform="matrix(0 .5 -.5 0 276.82523 -15.328148)"/>
  <path d="m189.84323 74c-70.59344 0-78.18921 7.250835-77.84323 77.98706v146.01294 146.01294c-.34598 70.73623 7.24979 77.98706 77.84323 77.98706h196.31354c70.59344 0 77.84323-7.24999 77.84323-77.98706v-146.01294-146.01294c0-70.737067-7.24979-77.98706-77.84323-77.98706z" fill="url(#linearGradient4358)" filter="url(#filter4380)" opacity=".3" transform="matrix(0 .5 -.5 0 276.82523 -15.328148)"/>
  <path d="m241.83043 77.478254c0-36.098811-3.69016-39.983003-39.68984-39.806081h-74.31016-74.310153c-35.99969-.176922-39.68984 3.70727-39.68984 39.806081v100.387326c0 36.09881 3.68973 39.80608 39.68984 39.80608h74.310153 74.31016c36.00011 0 39.68984-3.70727 39.68984-39.80608z" opacity=".1"/>
  <path d="m239.82523 176.74484c0 35.29673-3.62542 39.09461-38.99353 38.92162h-73.00647-73.006463c-35.36812.17299-38.99353-3.62489-38.99353-38.92162v-98.156766c0-35.296716 3.625-38.921616 38.99353-38.921616h73.006463 73.00647c35.36853 0 38.99353 3.6249 38.99353 38.921616z" fill="#f6d32d"/>
  <path d="m54.818171 39.667201c-35.36853 0-38.992187 3.623202-38.992187 38.919923v98.158206c0 .0882.0019.16224.002.25v-96.410156c-.000047-35.29672 3.625564-38.921879 38.994094-38.921879h73.005852 73.00586c35.28016 0 38.97394 3.621035 38.99219 38.671879v-1.74805c0-35.296721-3.62561-38.919923-38.99414-38.919923h-73.00586z" fill="#fff" opacity=".3"/>
  <path d="m15.825984 174.74533v2c0 35.29673 3.624067 39.09487 38.992187 38.92188h73.007809 73.00586c35.36811.17299 38.99414-3.62515 38.99414-38.92188v-2c0 35.29673-3.62603 39.09487-38.99414 38.92188h-73.00586-73.007809c-35.36812.17299-38.992187-3.62515-38.992187-38.92188z" opacity=".2"/>
  <path d="m-401.73409 122.78781v40.00001h39.99999v-40.00001zm39.99999 40.00001v39.99999h40.00001v-39.99999zm40.00001 0h40v-40.00001h-40zm40 0v39.99999h40.00001v-39.99999zm40.00001 0h39.99999v-40.00001h-39.99999z" fill="#241f31" opacity=".8" stroke-width="1.37931" transform="translate(429.55932 -35.118654)"/>
  <path d="m15.827937 127.66916v8 41.00586c0 35.36853 3.625165 38.99414 38.921875 38.99414h146.156248c35.29673 0 39.09486-3.62602 38.92187-38.99414v-41.00586-8z" fill="#fff" opacity=".1"/>
</svg>

<?xml version="1.0" encoding="UTF-8" standalone="no"?>
<svg
   xmlns:dc="http://purl.org/dc/elements/1.1/"
   xmlns:cc="http://creativecommons.org/ns#"
   xmlns:rdf="http://www.w3.org/1999/02/22-rdf-syntax-ns#"
   xmlns:svg="http://www.w3.org/2000/svg"
   xmlns="http://www.w3.org/2000/svg"
   xmlns:xlink="http://www.w3.org/1999/xlink"
   xmlns:sodipodi="http://sodipodi.sourceforge.net/DTD/sodipodi-0.dtd"
   xmlns:inkscape="http://www.inkscape.org/namespaces/inkscape"
   style="enable-background:new"
   width="256"
   height="256"
   version="1.0"
   viewBox="0 0 256 256"
   id="svg73"
   sodipodi:docname="usage-app.svg"
   inkscape:version="0.92.4 (5da689c313, 2019-01-14)">
  <metadata
     id="metadata77">
    <rdf:RDF>
      <cc:Work
         rdf:about="">
        <dc:format>image/svg+xml</dc:format>
        <dc:type
           rdf:resource="http://purl.org/dc/dcmitype/StillImage" />
        <dc:title>
  Adwaita Icon Template
 </dc:title>
      </cc:Work>
    </rdf:RDF>
  </metadata>
  <sodipodi:namedview
     pagecolor="#ffffff"
     bordercolor="#666666"
     borderopacity="1"
     objecttolerance="10"
     gridtolerance="10"
     guidetolerance="10"
     inkscape:pageopacity="0"
     inkscape:pageshadow="2"
     inkscape:window-width="1920"
     inkscape:window-height="1016"
     id="namedview75"
     showgrid="false"
     inkscape:zoom="0.921875"
     inkscape:cx="128"
     inkscape:cy="128"
     inkscape:window-x="0"
     inkscape:window-y="27"
     inkscape:window-maximized="1"
     inkscape:current-layer="svg73" />
  <title
     id="title4162">
  Adwaita Icon Template
 </title>
  <defs
     id="defs49">
    <linearGradient
       id="linearGradient1099"
       x1="32"
       x2="96"
       y1="236"
       y2="236"
       gradientTransform="translate(604.81684,170.58641)"
       gradientUnits="userSpaceOnUse"
       xlink:href="#linearGradient1036" />
    <linearGradient
       id="linearGradient1036">
      <stop
         id="stop1032"
         offset="0"
         style="stop-color:#d5d3cf" />
      <stop
         id="stop1034"
         offset="1"
         style="stop-color:#f6f5f4" />
    </linearGradient>
    <radialGradient
       id="radialGradient1103"
       cx="-244"
       cy="-76"
       r="32"
       fx="-244"
       fy="-76"
       gradientTransform="matrix(0.88333331,0,0,0.88333331,-460.35018,463.11973)"
       gradientUnits="userSpaceOnUse"
       xlink:href="#linearGradient1069" />
    <linearGradient
       id="linearGradient1069">
      <stop
         id="stop1065"
         offset="0"
         style="stop-color:#d5d3cf" />
      <stop
         id="stop1067-1"
         offset="1"
         style="stop-color:#949390" />
    </linearGradient>
    <linearGradient
       id="linearGradient1027"
       x1="64"
       x2="64"
       y1="262.5"
       y2="232"
       gradientTransform="translate(-470.5864,432.81685)"
       gradientUnits="userSpaceOnUse"
       xlink:href="#linearGradient1025" />
    <linearGradient
       id="linearGradient1025">
      <stop
         id="stop1021"
         offset="0"
         style="stop-color:#9a9996" />
      <stop
         id="stop1023"
         offset="1"
         style="stop-color:#77767b" />
    </linearGradient>
    <linearGradient
       id="linearGradient1444-2-3"
       x1="120"
       x2="568"
       y1="619.964"
       y2="619.964"
       gradientTransform="matrix(0.25,0,0,0.25,-186.05562,97.702157)"
       gradientUnits="userSpaceOnUse"
       xlink:href="#linearGradient1076" />
    <linearGradient
       id="linearGradient1076">
      <stop
         style="stop-color:#d5d3cf"
         id="stop1064"
         offset="0" />
      <stop
         id="stop1066"
         offset=".036"
         style="stop-color:#e4e1de" />
      <stop
         style="stop-color:#d5d3cf"
         id="stop1068"
         offset=".071" />
      <stop
         id="stop1070"
         offset=".929"
         style="stop-color:#d5d3cf" />
      <stop
         style="stop-color:#e4e1de"
         id="stop1072"
         offset=".964" />
      <stop
         style="stop-color:#d5d3cf"
         id="stop1074"
         offset="1" />
    </linearGradient>
    <linearGradient
       id="linearGradient1106"
       x1="344"
       x2="104"
       y1="33.559"
       y2="33.559"
       gradientTransform="matrix(0.25,0,0,0.25,-166.05562,213.69313)"
       gradientUnits="userSpaceOnUse"
       xlink:href="#linearGradient1104" />
    <linearGradient
       id="linearGradient1104">
      <stop
         style="stop-color:#4fd2fd"
         id="stop1100"
         offset="0" />
      <stop
         style="stop-color:#4fd2fd;stop-opacity:0"
         id="stop1102"
         offset="1" />
    </linearGradient>
    <radialGradient
       id="radialGradient1030"
       cx="64"
       cy="194.19"
       r="44"
       fx="64"
       fy="194.19"
       gradientTransform="matrix(-4.7272726,1.1058296e-6,-3.0301491e-7,-1.2272727,198.48987,-10.368527)"
       gradientUnits="userSpaceOnUse"
       xlink:href="#linearGradient1020" />
    <linearGradient
       id="linearGradient1020">
      <stop
         style="stop-color:#ffffff"
         id="stop1016"
         offset="0" />
      <stop
         style="stop-color:#ffffff;stop-opacity:0.09411765"
         id="stop1018"
         offset="1" />
    </linearGradient>
    <radialGradient
       id="radialGradient1030-8"
       cx="64"
       cy="194.19"
       r="44"
       fx="64"
       fy="194.19"
       gradientTransform="matrix(-4.7272726,1.2901346e-6,-3.0301491e-7,-1.4318182,490.54548,36.71204)"
       gradientUnits="userSpaceOnUse"
       xlink:href="#linearGradient1020" />
    <linearGradient
       id="linearGradient1106-2"
       x1="344"
       x2="104"
       y1="33.559"
       y2="33.559"
       gradientTransform="matrix(0.25,0,0,0.25,125.99999,201)"
       gradientUnits="userSpaceOnUse"
       xlink:href="#linearGradient1104" />
    <linearGradient
       id="linearGradient1444-2-3-3"
       x1="120"
       x2="568"
       y1="619.964"
       y2="619.964"
       gradientTransform="matrix(0.25,0,0,0.25,105.99999,91.009027)"
       gradientUnits="userSpaceOnUse"
       xlink:href="#linearGradient1076" />
    <filter
       style="color-interpolation-filters:sRGB"
       id="filter4832"
       width="3.011"
       height="3.011"
       x="-1.01"
       y="-1.01">
      <feGaussianBlur
         id="feGaussianBlur4834"
         stdDeviation="3.352" />
    </filter>
    <linearGradient
       id="linearGradient4886"
       x1="24.987"
       x2="292.575"
       y1="298.462"
       y2="-5.118"
       gradientTransform="rotate(90,154.07669,129.74855)"
       gradientUnits="userSpaceOnUse"
       xlink:href="#linearGradient4338-7" />
    <linearGradient
       id="linearGradient4338-7">
      <stop
         id="stop4342-6"
         offset="0"
         style="stop-color:#2daaaa" />
      <stop
         id="stop4340-2"
         offset="1"
         style="stop-color:#31c6b7" />
    </linearGradient>
    <linearGradient
       id="linearGradient4358"
       x1="88"
       x2="488"
       y1="88"
       y2="488"
       gradientTransform="rotate(-90,287.9946,298)"
       gradientUnits="userSpaceOnUse"
       xlink:href="#linearGradient4360" />
    <linearGradient
       id="linearGradient4360">
      <stop
         id="stop4362"
         offset="0"
         style="stop-color:#000000;stop-opacity:0.58823532" />
      <stop
         style="stop-color:#000000;stop-opacity:0"
         id="stop4364"
         offset=".88" />
      <stop
         id="stop4366"
         offset="1"
         style="stop-color:#000000" />
    </linearGradient>
    <filter
       style="color-interpolation-filters:sRGB"
       id="filter4380"
       width="1.106"
       height="1.088"
       x="-.05"
       y="-.04">
      <feGaussianBlur
         id="feGaussianBlur4382"
         stdDeviation="8.48" />
    </filter>
    <filter
       style="color-interpolation-filters:sRGB"
       id="filter4346"
       width="1.026"
       height="1.022"
       x="-.01"
       y="-.01">
      <feGaussianBlur
         id="feGaussianBlur4348"
         stdDeviation="2.12" />
    </filter>
    <linearGradient
       id="linearGradient1007">
      <stop
         id="stop1003"
         offset="0"
         style="stop-color:#2dc0af;stop-opacity:1;" />
      <stop
         id="stop1005"
         offset="1"
         style="stop-color:#61a1d2;stop-opacity:1" />
    </linearGradient>
    <linearGradient
       id="linearGradient6809-3">
      <stop
         id="stop6805"
         offset="0"
         style="stop-color:#f6d123;stop-opacity:1" />
      <stop
         id="stop6807"
         offset="1"
         style="stop-color:#2dc0af;stop-opacity:0.13779527" />
    </linearGradient>
    <linearGradient
       id="linearGradient6826">
      <stop
         id="stop6822"
         offset="0"
         style="stop-color:#50dbb5;stop-opacity:1;" />
      <stop
         id="stop6824"
         offset="1"
         style="stop-color:#4a86cf;stop-opacity:1" />
    </linearGradient>
    <radialGradient
       r="225"
       fy="-179.60248"
       fx="184"
       cy="-179.60248"
       cx="184"
       gradientTransform="matrix(0.25,0,0,0.1967778,-162.99495,200.7212)"
       gradientUnits="userSpaceOnUse"
       id="radialGradient439"
       xlink:href="#linearGradient6826" />
    <radialGradient
       r="225"
       fy="267.60248"
       fx="256"
       cy="267.60248"
       cx="256"
       gradientTransform="matrix(0.45333333,0,0,0.35682373,-215.04828,157.89251)"
       gradientUnits="userSpaceOnUse"
       id="radialGradient441"
       xlink:href="#linearGradient6809-3" />
    <linearGradient
       y2="172"
       x2="230"
       y1="204"
       x1="230"
       gradientTransform="matrix(0.25,0,0,0.25,-162.99495,202.37942)"
       gradientUnits="userSpaceOnUse"
       id="linearGradient443"
       xlink:href="#linearGradient1007" />
  </defs>
  <path
     style="opacity:0.1;filter:url(#filter4346)"
     d="M 189.84323,74 C 119.24979,74 111.65402,81.250835 112,151.98706 V 298 444.01294 C 111.65402,514.74917 119.24979,522 189.84323,522 H 386.15677 C 456.75021,522 462.16345,514.72616 464,444.01294 V 298 151.98706 C 464,81.249993 456.75021,74 386.15677,74 Z"
     transform="matrix(0,0.5,-0.5,0,276.82523,-15.328148)"
     id="path51" />
  <path
     d="M 189.84323,74 C 119.24979,74 111.65402,81.250835 112,151.98706 V 298 444.01294 C 111.65402,514.74917 119.24979,522 189.84323,522 H 386.15677 C 456.75021,522 464,514.75001 464,444.01294 V 298 151.98706 C 464,81.249993 456.75021,74 386.15677,74 Z"
     transform="matrix(0,0.5,-0.5,0,276.82523,-15.328148)"
     style="opacity:0.3;fill:url(#linearGradient4358);filter:url(#filter4380)"
     id="path53" />
  <path
     style="opacity:0.1"
     d="m 241.83043,77.478254 c 0,-36.098811 -3.69016,-39.983003 -39.68984,-39.806081 H 127.83043 53.520277 c -35.99969,-0.176922 -39.68984,3.70727 -39.68984,39.806081 V 177.86558 c 0,36.09881 3.68973,39.80608 39.68984,39.80608 h 74.310153 74.31016 c 36.00011,0 39.68984,-3.70727 39.68984,-39.80608 z"
     id="path55" />
  <path
     style="fill:#f6d32d;fill-opacity:1"
     d="m 239.82523,176.74484 c 0,35.29673 -3.62542,39.09461 -38.99353,38.92162 H 127.82523 54.818767 c -35.36812,0.17299 -38.99353,-3.62489 -38.99353,-38.92162 V 78.588074 c 0,-35.296716 3.625,-38.921616 38.99353,-38.921616 h 73.006463 73.00647 c 35.36853,0 38.99353,3.6249 38.99353,38.921616 z"
     id="path57" />
  <path
     style="opacity:0.3;fill:#ffffff"
     d="m 54.818171,39.667201 c -35.36853,0 -38.992187,3.623202 -38.992187,38.919923 v 98.158206 c 0,0.0882 0.0019,0.16224 0.002,0.25 V 80.585174 c -4.7e-5,-35.29672 3.625564,-38.921879 38.994094,-38.921879 h 73.005852 73.00586 c 35.28016,0 38.97394,3.621035 38.99219,38.671879 v -1.74805 c 0,-35.296721 -3.62561,-38.919923 -38.99414,-38.919923 h -73.00586 z"
     id="path69" />
  <path
     style="opacity:0.2"
     d="m 15.825984,174.74533 v 2 c 0,35.29673 3.624067,39.09487 38.992187,38.92188 h 73.007809 73.00586 c 35.36811,0.17299 38.99414,-3.62515 38.99414,-38.92188 v -2 c 0,35.29673 -3.62603,39.09487 -38.99414,38.92188 H 127.82598 54.818171 c -35.36812,0.17299 -38.992187,-3.62515 -38.992187,-38.92188 z"
     id="path71" />
  <g
     style="display:inline;enable-background:new"
     id="g919"
     transform="translate(429.55932,-35.118654)">
    <path
       style="opacity:0.8;isolation:isolate;fill:#241f31;fill-opacity:1;stroke-width:1.37931001"
       d="m -401.73409,122.78781 v 40.00001 h 39.99999 v -40.00001 z m 39.99999,40.00001 v 39.99999 h 40.00001 v -39.99999 z m 40.00001,0 h 40 v -40.00001 h -40 z m 40,0 v 39.99999 h 40.00001 v -39.99999 z m 40.00001,0 h 39.99999 v -40.00001 h -39.99999 z"
       id="path1516"
       inkscape:connector-curvature="0" />
  </g>
  <path
     style="opacity:0.1;fill:#ffffff"
     d="m 15.827937,127.66916 v 8 41.00586 c 0,35.36853 3.625165,38.99414 38.921875,38.99414 H 200.90606 c 35.29673,0 39.09486,-3.62602 38.92187,-38.99414 v -41.00586 -8 z"
     id="path59" />
</svg>
